packages/product-components/src/images/networks/nem.svg

<svg width="32" height="32" viewBox="0 0 32 32" fill="none" xmlns="http://www.w3.org/2000/svg">
<path d="M0 8C0 3.58172 3.58172 0 8 0H24C28.4183 0 32 3.58172 32 8V24C32 28.4183 28.4183 32 24 32H8C3.58172 32 0 28.4183 0 24V8Z" fill="#1F1F1F"/>
<path d="M5.99853 8.67863C7.34397 7.89943 8.75248 7.28871 10.2346 6.84646C12.2527 6.24626 14.3025 5.96196 16.4047 6.00408C17.3822 6.02513 19.0116 6.18309 19.2848 6.28839C19.2954 6.30944 19.2742 6.31997 19.2532 6.31997C19.1587 6.36209 19.0536 6.39368 18.959 6.4358C17.2245 7.16236 15.9948 8.68916 15.6373 10.5424C15.5848 10.8478 15.5534 11.1531 15.5428 11.4585C15.5322 11.9218 15.4902 12.3851 15.3535 12.8379C14.8911 14.47 13.5561 15.7441 11.9059 16.1232C9.74054 16.6181 7.5542 15.544 6.60818 13.5328C6.55562 13.4169 6.51359 13.3011 6.49256 13.1854C6.33489 12.501 6.21927 11.8165 6.13517 11.1215C6.04057 10.3529 5.98802 9.5842 5.98802 8.81552C5.99853 8.76287 5.99853 8.73128 5.99853 8.67863Z" fill="#F6F6F6"/>
<path d="M21.5027 21.2932C21.5237 21.0931 21.5447 20.9142 21.5553 20.7246C21.6078 19.6823 21.387 18.6924 20.893 17.7763C20.4201 16.9023 19.7578 16.2074 18.9065 15.681C18.8329 15.6283 18.7488 15.5861 18.6752 15.5334C17.5085 14.7964 16.7936 13.754 16.5414 12.3957C16.0894 9.95274 17.624 7.59408 20.0312 7.01494C20.8826 6.81487 21.713 6.83594 22.5433 7.09918C23.2266 7.30977 23.8783 7.59408 24.5299 7.89944C24.9819 8.11003 25.4128 8.34169 25.8439 8.58387C25.8964 8.61547 25.9384 8.63652 26.0016 8.67864C26.0016 8.72076 26.012 8.75234 26.012 8.79446C26.012 9.35255 25.9806 9.92115 25.9384 10.4792C25.8649 11.3005 25.7388 12.1219 25.5705 12.9222C25.0555 15.3019 24.141 17.5025 22.8166 19.5453C22.4488 20.1139 22.0493 20.6615 21.6288 21.188C21.5868 21.2195 21.5657 21.2617 21.5027 21.2932Z" fill="#F6F6F6"/>
<path d="M16.0053 26C15.8476 25.9369 15.3641 25.6421 14.8491 25.2946C13.7034 24.5258 12.6417 23.6414 11.6746 22.6516C10.7076 21.6618 9.84567 20.5773 9.10988 19.4085C8.41614 18.3239 7.83801 17.1867 7.37551 15.9862C7.365 15.9547 7.35449 15.9337 7.34398 15.881C7.39654 15.9125 7.41756 15.9231 7.4491 15.9442C7.81699 16.2285 8.20591 16.4707 8.62636 16.6497C9.16244 16.8814 9.71953 17.0393 10.3082 17.0919C11.4959 17.2077 12.6101 16.9656 13.6612 16.3759C14.2078 16.0705 14.7965 15.8705 15.4167 15.7863C17.6135 15.5125 19.7998 16.8181 20.4831 19.0925C20.83 20.2613 20.7249 21.3985 20.1887 22.5042C20.1152 22.6516 20.0521 22.7884 19.9785 22.9254C19.9365 23.0097 19.8839 23.0938 19.8104 23.1571C18.6962 24.21 17.4769 25.1366 16.1524 25.9159C16.1 25.9474 16.0474 25.979 16.0053 26Z" fill="#F6F6F6"/>
</svg>

<svg xmlns="http://www.w3.org/2000/svg" width="32" height="32" viewBox="0 0 32 32" fill="none">
    <path class="bg" fill="#1F1F1F" d="M0 8a8 8 0 0 1 8-8h16a8 8 0 0 1 8 8v16a8 8 0 0 1-8 8H8a8 8 0 0 1-8-8z"/>
    <path class="fg" fill="#F6F6F6" d="M5.999 8.679a19.6 19.6 0 0 1 4.236-1.833c2.018-.6 4.068-.884 6.17-.842.977.021 2.607.18 2.88.284.01.021-.01.032-.032.032-.094.042-.2.074-.294.116a5.56 5.56 0 0 0-3.322 4.106q-.079.458-.094.917c-.01.463-.053.926-.19 1.379a4.7 4.7 0 0 1-3.447 3.285 4.68 4.68 0 0 1-5.298-2.59 1.5 1.5 0 0 1-.115-.348 20 20 0 0 1-.358-2.064 19 19 0 0 1-.147-2.305c.01-.053.01-.085.01-.137"/>
    <path class="fg" fill="#F6F6F6" d="M21.503 21.293c.02-.2.042-.379.052-.568a5.53 5.53 0 0 0-.662-2.949 5.5 5.5 0 0 0-1.986-2.095c-.074-.053-.158-.095-.232-.148-1.166-.737-1.881-1.779-2.134-3.137a4.657 4.657 0 0 1 3.49-5.381 4.63 4.63 0 0 1 2.512.084c.684.21 1.335.495 1.987.8.452.211.883.443 1.314.685.052.031.094.053.158.095 0 .042.01.073.01.115 0 .559-.031 1.127-.074 1.685a19.7 19.7 0 0 1-3.122 9.066 20 20 0 0 1-1.187 1.643c-.042.032-.063.074-.126.105"/>
    <path class="fg" fill="#F6F6F6" d="M16.005 26c-.157-.063-.64-.358-1.156-.705a20 20 0 0 1-3.174-2.643 19.5 19.5 0 0 1-2.565-3.244 19 19 0 0 1-1.734-3.422c-.011-.031-.022-.052-.032-.105.053.031.074.042.105.063.368.284.757.527 1.177.706.536.231 1.094.39 1.682.442a5.6 5.6 0 0 0 3.353-.716 5 5 0 0 1 1.756-.59 4.674 4.674 0 0 1 5.066 3.307c.347 1.168.242 2.305-.294 3.411-.074.148-.137.284-.21.421a.7.7 0 0 1-.169.232A20.3 20.3 0 0 1 16.005 26"/>
</svg>
